32x32/apps/kcmscsi.svg

<svg xmlns="http://www.w3.org/2000/svg" width="32" height="32" version="1">
 <rect style="opacity:0.2" width="24.867" height="24.867" x="-12.43" y="10.9" rx="7.46" ry="7.46" transform="rotate(-45)"/>
 <rect style="fill:#8e8e8e" width="24.867" height="24.867" x="-11.73" y="10.19" rx="7.46" ry="7.46" transform="rotate(-45)"/>
 <path style="opacity:0.1" d="M 16.478516,5.9993114 A 1.50015,1.50015 0 0 0 15.439453,6.4387645 L 6.4394531,15.438764 a 1.50015,1.50015 0 0 0 0,2.121094 l 8.9999999,9 a 1.50015,1.50015 0 0 0 2.123047,0 l 7.560547,-7.560547 H 20.880859 L 16.501953,23.378217 9.6210938,16.499311 16.5,9.6204052 20.876953,13.999311 h 4.242188 L 17.560547,6.4387645 A 1.50015,1.50015 0 0 0 16.478516,5.9993114 Z M 17.5,14.999311 a 1.50015,1.50015 0 1 0 0,3 h 8 a 1.50015,1.50015 0 1 0 0,-3 z"/>
 <path style="fill:none;stroke:#17191e;stroke-width:3;stroke-linecap:round;stroke-linejoin:round" d="m 17.5,15.500115 h 8"/>
 <path style="fill:#17191e" d="M 16.478516 5 A 1.50015 1.50015 0 0 0 15.439453 5.4394531 L 6.4394531 14.439453 A 1.50015 1.50015 0 0 0 6.4394531 16.560547 L 15.439453 25.560547 A 1.50015 1.50015 0 0 0 17.5625 25.560547 L 25.123047 18 L 20.880859 18 L 16.501953 22.378906 L 9.6210938 15.5 L 16.5 8.6210938 L 20.876953 13 L 25.119141 13 L 17.560547 5.4394531 A 1.50015 1.50015 0 0 0 16.478516 5 z"/>
 <path style="fill:#f4f4f7;opacity:0.1" d="M 16.5 1 C 14.593033 1 12.685826 1.7301893 11.224609 3.1914062 L 4.1914062 10.224609 C 2.6024226 11.813593 1.8864522 13.929996 2.0253906 16 C 2.1419856 14.262885 2.857956 12.55806 4.1914062 11.224609 L 11.224609 4.1914062 C 14.147043 1.2689723 18.852957 1.2689723 21.775391 4.1914062 L 28.808594 11.224609 C 30.142044 12.55806 30.858014 14.262885 30.974609 16 C 31.113548 13.929996 30.397577 11.813593 28.808594 10.224609 L 21.775391 3.1914062 C 20.314174 1.7301893 18.406967 1 16.5 1 z"/>
</svg>

<svg xmlns="http://www.w3.org/2000/svg" width="32" height="32" version="1"><rect style="opacity:.2" width="24.867" height="24.867" x="-12.43" y="10.9" rx="7.46" ry="7.46" transform="rotate(-45)"/><rect style="fill:#8e8e8e" width="24.867" height="24.867" x="-11.73" y="10.19" rx="7.46" ry="7.46" transform="rotate(-45)"/><path style="opacity:.1" d="M16.479 6a1.5 1.5 0 0 0-1.04.439l-9 9a1.5 1.5 0 0 0 0 2.12l9 9a1.5 1.5 0 0 0 2.124 0l7.56-7.56h-4.242l-4.379 4.38-6.88-6.88L16.5 9.62 20.877 14h4.242l-7.558-7.561a1.5 1.5 0 0 0-1.082-.44zm1.021 9a1.5 1.5 0 1 0 0 3h8a1.5 1.5 0 1 0 0-3z"/><path style="fill:none;stroke:#17191e;stroke-width:3;stroke-linecap:round;stroke-linejoin:round" d="M17.5 15.5h8"/><path style="fill:#17191e" d="M16.479 5a1.5 1.5 0 0 0-1.04.44l-9 9a1.5 1.5 0 0 0 0 2.12l9 9a1.5 1.5 0 0 0 2.123 0L25.123 18h-4.242l-4.379 4.379-6.88-6.879L16.5 8.621 20.877 13h4.242l-7.558-7.56A1.5 1.5 0 0 0 16.479 5z"/><path style="fill:#f4f4f7;opacity:.1" d="M16.5 1c-1.907 0-3.814.73-5.275 2.191L4.19 10.225A7.43 7.43 0 0 0 2.025 16a7.425 7.425 0 0 1 2.166-4.775l7.034-7.034a7.444 7.444 0 0 1 10.55 0l7.034 7.034A7.425 7.425 0 0 1 30.975 16a7.43 7.43 0 0 0-2.166-5.775L21.775 3.19A7.437 7.437 0 0 0 16.5 1z"/></svg>
